frontend/public/svg/health/bottle.svg

<svg width="107" height="159" viewBox="0 0 107 159" fill="none" xmlns="http://www.w3.org/2000/svg">
<g clip-path="url(#clip0)">
<path d="M28.9494 29.1077C27.1162 28.6805 25.2856 28.2401 23.4485 27.8286C20.7969 27.2379 19.2802 25.5019 19.1588 22.8916C18.9566 18.5237 18.9179 14.1407 19.0223 9.76887C19.0879 6.91314 21.2362 5.28922 23.5727 4.44846C26.6076 3.35697 29.8171 2.27801 32.9938 2.13493C47.4601 1.48319 61.9382 1.05716 76.4184 0.776907C81.6553 0.675831 85.3742 2.03917 86.0863 9.48861C86.5122 13.9392 86.9198 18.393 87.2303 22.8528C87.4016 25.3226 85.8185 27.3384 83.0914 28.3662C82.2434 28.6581 81.3751 28.8879 80.4936 29.0539C79.6469 29.2383 78.7871 29.3552 77.8079 29.5233C77.8571 31.6662 79.2177 32.6632 80.6098 33.5853C82.2926 34.7011 84.0228 35.7472 85.7456 36.8013C96.948 43.645 102.476 53.9449 103.966 66.6986C105.989 84.0194 106.137 101.432 106.455 118.833C106.564 124.783 106.491 130.742 106.282 136.689C106.164 140.158 105.801 143.614 105.198 147.03C104.279 152.198 101.418 155.018 95.8486 155.738C87.5046 156.817 79.1245 157.881 70.7286 158.242C53.0731 159.001 35.4891 157.624 18.0134 155.067C14.9125 154.594 11.8745 153.774 8.95608 152.624C4.85067 151.027 2.01587 148.095 1.48029 143.468C1.13309 140.476 0.591064 137.468 0.641602 134.476C0.887073 119.767 1.02159 105.046 1.75078 90.3576C2.27585 79.7296 2.92159 69.0523 5.48065 58.6364C7.62949 49.888 12.7176 43.0655 19.5881 37.4748C21.8485 35.637 24.2749 33.9963 26.645 32.2964C27.6387 31.5829 28.6836 30.9404 29.7055 30.2656C29.454 29.8779 29.2019 29.492 28.9494 29.1077ZM35.7425 29.6682C35.9742 34.8179 32.4358 37.9269 28.6717 40.9034C27.4404 41.8768 26.2649 42.9236 25.0894 43.9653C19.6667 48.7677 15.31 54.3828 14.3872 61.7219C12.9518 73.1721 11.6215 84.6652 10.9868 96.18C10.1847 110.742 10.1334 125.345 9.73962 139.93C9.64707 143.378 10.1992 144.307 13.7139 144.925C17.7943 145.643 21.9181 146.158 26.0412 146.586C48.0003 148.869 69.9574 149.075 91.9034 146.359C94.9882 145.978 95.9261 144.809 95.8605 141.718C95.7207 135.102 95.5592 128.484 95.6084 121.868C95.7397 104.247 96.0423 86.6231 94.6502 69.0332C94.0733 61.7481 92.6405 54.7142 87.4679 49.1983C84.9081 46.5327 82.0505 44.17 78.9519 42.1565C74.4717 39.1826 70.7411 35.8884 70.602 29.6689L35.7425 29.6682ZM25.4466 22.1605C43.2344 22.4608 61.0261 21.8674 78.7543 20.3824C78.4485 16.0893 78.18 12.3252 77.9011 8.42462C75.7076 8.0744 73.4971 7.83674 71.2793 7.7125C60.0558 7.65736 48.8324 7.59166 37.6143 7.79185C34.286 7.85157 30.9355 8.59717 27.6643 9.33621C24.9733 9.94529 24.5835 10.5662 24.6741 13.3766C24.764 16.1542 25.1486 18.9227 25.4466 22.1605Z" fill="black"/>
<path d="M21.656 95.966C21.656 87.9954 21.614 80.0255 21.6717 72.0563C21.7085 67.0215 23.5365 65.0596 28.5312 64.8614C38.0671 64.4833 47.6076 64.2338 57.1475 63.949C62.3115 63.7947 67.4756 63.6261 72.641 63.5763C74.3159 63.5277 75.9889 63.7143 77.6121 64.1309C80.3687 64.906 81.1563 66.1473 81.2613 69.0207C81.682 80.5775 82.0325 92.1376 82.5438 103.69C82.8464 110.529 83.4751 117.354 83.7948 124.192C83.7902 126.093 83.5631 127.986 83.1194 129.834C83.015 130.512 82.679 131.133 82.169 131.592C81.6584 132.051 81.0047 132.319 80.3188 132.35C76.4372 132.719 72.5497 133.329 68.6662 133.319C56.9834 133.288 45.3065 133.034 33.6276 132.794C31.9434 132.737 30.2707 132.494 28.6396 132.072C25.7018 131.347 23.9349 129.643 23.1098 126.47C22.0991 122.586 21.9939 118.766 22.0957 114.825C22.2545 108.541 22.1385 102.252 22.1385 95.9647L21.656 95.966ZM29.0213 70.546C29.7814 88.3183 30.531 105.822 31.2963 123.76H74.7865V72.0792C59.4387 70.5178 44.4459 70.9464 29.0213 70.546Z" fill="black"/>
<path d="M50.3017 107.252H43.9169C43.2448 107.252 42.5701 107.288 41.9006 107.244C38.7075 107.035 36.6591 105.402 36.6781 103.109C36.6965 100.869 38.4333 99.3258 41.5949 99.0901C47.179 98.6747 52.7723 98.3682 58.3656 98.0997C59.5966 98.0564 60.8277 98.1831 62.024 98.4765C64.2556 99.0015 65.58 100.498 65.6561 102.328C65.7369 104.274 64.3789 105.974 62.0213 106.543C60.6003 106.856 59.1511 107.023 57.6961 107.043C55.2336 107.12 52.7669 107.065 50.3017 107.065V107.252Z" fill="black"/>
<path d="M51.0919 77.4488C54.2272 77.4488 57.3631 77.4022 60.4971 77.4619C63.9186 77.5275 66.0473 79.1999 65.9559 81.627C65.8667 83.9898 63.5616 85.7226 60.2629 85.6438C53.9975 85.4935 47.7353 85.2224 41.4726 84.9822C40.8015 84.9612 40.1348 84.8647 39.4852 84.6947C37.2037 84.0811 36.0775 82.6089 36.3052 80.6254C36.5192 78.7634 37.7413 77.5932 40.0096 77.4599C42.4649 77.3155 44.9321 77.4008 47.3966 77.3903C48.6279 77.3851 49.86 77.3903 51.0919 77.3903V77.4488Z" fill="black"/>
<path d="M52.219 111.863C54.1224 111.863 56.0305 111.788 57.9292 111.892C59.035 111.972 60.1262 112.193 61.1762 112.548C62.5145 112.981 63.3211 114.128 62.9004 115.401C62.5656 116.412 61.5377 117.229 60.7153 118.026C60.3227 118.25 59.8651 118.331 59.4192 118.258C54.6161 118.043 49.8123 117.829 45.0125 117.553C43.3106 117.455 42.374 116.371 42.2165 114.737C42.0648 113.169 43.2417 112.023 45.1792 111.743C45.8455 111.673 46.5162 111.658 47.1849 111.696C48.0802 111.711 48.9742 111.772 49.8694 111.792C50.6531 111.809 51.4368 111.795 52.2204 111.795L52.219 111.863Z" fill="black"/>
<path d="M49.6967 89.1689C53.4116 89.146 55.2651 90.2105 55.3989 92.0398C55.5302 93.8499 53.8308 95.395 50.9042 95.6647C49.2415 95.7454 47.5756 95.5905 45.9561 95.2053C44.6178 94.9427 43.63 93.8545 44.0002 92.5268C44.3447 91.4097 45.1048 90.4678 46.1235 89.8948C47.3824 89.2884 48.9419 89.3028 49.6967 89.1689Z" fill="black"/>
</g>
<defs>
<clipPath id="clip0">
<rect width="106.327" height="158.177" fill="white" transform="translate(0.36499 0.32373)"/>
</clipPath>
</defs>
</svg>

<svg xmlns="http://www.w3.org/2000/svg" width="107" height="159" fill="none" viewBox="0 0 107 159"><g fill="#000" clip-path="url(#a)"><path d="M28.95 29.108c-1.834-.428-3.664-.868-5.501-1.28-2.652-.59-4.169-2.326-4.29-4.936a188 188 0 0 1-.137-13.123c.066-2.856 2.214-4.48 4.55-5.32 3.036-1.092 6.245-2.171 9.422-2.314C47.46 1.483 61.938 1.057 76.418.777c5.237-.101 8.956 1.262 9.668 8.712.426 4.45.834 8.904 1.144 13.364.172 2.47-1.412 4.485-4.139 5.513q-1.274.439-2.597.688c-.847.184-1.707.301-2.686.47.05 2.142 1.41 3.14 2.802 4.061 1.683 1.116 3.413 2.162 5.136 3.216 11.202 6.844 16.73 17.144 18.22 29.898 2.023 17.32 2.171 34.733 2.489 52.134.109 5.95.036 11.909-.173 17.856a74 74 0 0 1-1.084 10.341c-.919 5.168-3.78 7.988-9.35 8.708-8.343 1.079-16.723 2.143-25.12 2.504-17.655.759-35.239-.618-52.715-3.175a42 42 0 0 1-9.057-2.443c-4.105-1.597-6.94-4.529-7.476-9.156-.347-2.992-.889-6-.838-8.992.245-14.709.38-29.43 1.109-44.118.525-10.628 1.17-21.306 3.73-31.722 2.148-8.748 7.237-15.57 14.107-21.161 2.26-1.838 4.687-3.479 7.057-5.179.994-.713 2.039-1.356 3.06-2.03a236 236 0 0 0-.756-1.158m6.793.56c.231 5.15-3.307 8.259-7.071 11.235-1.232.974-2.407 2.02-3.583 3.062-5.422 4.803-9.779 10.418-10.702 17.757-1.435 11.45-2.766 22.943-3.4 34.458-.802 14.562-.854 29.165-1.247 43.75-.093 3.448.46 4.377 3.974 4.995 4.08.718 8.204 1.233 12.327 1.661 21.96 2.283 43.916 2.489 65.862-.227 3.085-.381 4.023-1.55 3.957-4.641-.14-6.616-.3-13.234-.252-19.85.132-17.621.434-35.245-.958-52.835-.577-7.285-2.01-14.319-7.182-19.835a48.3 48.3 0 0 0-8.516-7.041c-4.48-2.974-8.21-6.269-8.35-12.488zm-10.296-7.507c17.787.3 35.58-.294 53.307-1.779L77.9 8.425a65 65 0 0 0-6.622-.713c-11.223-.055-22.447-.12-33.665.08-3.328.06-6.678.805-9.95 1.544-2.69.61-3.08 1.23-2.99 4.04.09 2.778.475 5.547.773 8.785"/><path d="M21.656 95.966c0-7.97-.042-15.94.016-23.91.037-5.034 1.864-6.996 6.86-7.195 9.535-.378 19.076-.627 28.616-.912 5.163-.154 10.328-.323 15.493-.373a18 18 0 0 1 4.971.555c2.757.775 3.544 2.016 3.65 4.89.42 11.557.77 23.117 1.282 34.669.302 6.839.931 13.664 1.25 20.502a24.4 24.4 0 0 1-.675 5.642 2.975 2.975 0 0 1-2.8 2.516c-3.882.369-7.77.979-11.653.969-11.683-.031-23.36-.285-35.038-.525a23 23 0 0 1-4.988-.722c-2.938-.725-4.705-2.429-5.53-5.602-1.01-3.884-1.116-7.704-1.014-11.645.159-6.284.043-12.573.043-18.86zm7.365-25.42c.76 17.772 1.51 35.276 2.275 53.214h43.49V72.08c-15.347-1.562-30.34-1.134-45.765-1.534"/><path d="M50.302 107.252h-6.385c-.672 0-1.347.036-2.016-.008-3.193-.209-5.242-1.842-5.223-4.135.019-2.24 1.755-3.783 4.917-4.019 5.584-.415 11.177-.722 16.77-.99a13.4 13.4 0 0 1 3.659.377c2.232.524 3.556 2.021 3.632 3.851.08 1.946-1.277 3.646-3.635 4.215-1.42.313-2.87.48-4.325.5-2.462.077-4.93.022-7.394.022zm.79-29.803c3.135 0 6.271-.047 9.405.013 3.422.066 5.55 1.738 5.459 4.165-.09 2.363-2.394 4.096-5.693 4.017-6.265-.15-12.528-.422-18.79-.662a9 9 0 0 1-1.988-.287c-2.281-.614-3.407-2.086-3.18-4.07.214-1.862 1.436-3.032 3.705-3.165 2.455-.144 4.922-.06 7.387-.07 1.23-.005 2.463 0 3.695 0zm1.127 34.414c1.903 0 3.812-.075 5.71.029 1.106.08 2.197.301 3.247.656 1.338.433 2.145 1.58 1.724 2.853-.334 1.011-1.362 1.828-2.185 2.625a1.97 1.97 0 0 1-1.296.232c-4.803-.215-9.607-.429-14.406-.705-1.702-.098-2.639-1.182-2.796-2.816-.152-1.568 1.025-2.714 2.962-2.994a12.4 12.4 0 0 1 2.006-.047c.895.015 1.79.076 2.684.096.784.017 1.568.003 2.351.003zm-2.522-22.694c3.715-.023 5.568 1.041 5.702 2.87.131 1.81-1.568 3.356-4.495 3.626a17.7 17.7 0 0 1-4.948-.46c-1.338-.262-2.326-1.35-1.956-2.678a4.56 4.56 0 0 1 2.124-2.632c1.258-.607 2.818-.592 3.573-.726"/></g><defs><clipPath id="a"><path fill="#fff" d="M.365.324h106.327V158.5H.365z"/></clipPath></defs></svg>
